X: 200
T: Wilhelmine's Waltz
T: Waltz, D
C: Don Pettigrew
L: 1/16
M: 3/4
K: D
|: F2E2| D4F4A4| d4^c4c4| B4c4d4| A4F4F2E2| D4F4A4| d4d4d4| B4c4d4| c4B4A4|
 D4F4A4| d4d4d4| B4c4d4| A4F4F2E2| D4F4A4| d4A4F4| E8E4| D8:| 
|: A4| f4f4f2e2| f4e4d4| d8B2c2| d4c4B4| A4d4d4| d4c4d4| f4e4d4| e8A4| 
f4f4f2e2| f4e4d4| d8B2c2| d4c4B4| A4d4d4| c4d4e4| d4 d2c2 d2e2| d8:| 
D: Kinnon and Betty Beaton, Saturday Night Lively, KB20M98
